source/images/icons/icon-utility/calendar.svg

<?xml version="1.0" encoding="UTF-8"?>
<svg width="24px" height="24px" viewBox="0 0 24 24" version="1.1" xmlns="http://www.w3.org/2000/svg" xmlns:xlink="http://www.w3.org/1999/xlink">
    <!-- Generator: Sketch 55.2 (78181) - https://sketchapp.com -->
    <title>Icons/24px/Calendar</title>
    <desc>Created with Sketch.</desc>
    <g id="Icons/24px/Calendar" stroke="none" stroke-width="1" fill="none" fill-rule="evenodd">
        <path d="M20,10 L4,10 L4,19 C4,19.5522847 4.44771525,20 5,20 L19,20 C19.5522847,20 20,19.5522847 20,19 L20,17 C20,16.4477153 20.4477153,16 21,16 C21.5522847,16 22,16.4477153 22,17 L22,19 C22,20.6568542 20.6568542,22 19,22 L5,22 C3.34314575,22 2,20.6568542 2,19 L2,5 C2,3.34314575 3.34314575,2 5,2 L7,2 L7,1 C7,0.44771525 7.44771525,0 8,0 C8.55228475,0 9,0.44771525 9,1 L9,2 L15,2 L15,1 C15,0.44771525 15.4477153,0 16,0 C16.5522847,0 17,0.44771525 17,1 L17,2 L19,2 C20.6568542,2 22,3.34314575 22,5 L22,13 C22,13.5522847 21.5522847,14 21,14 C20.4477153,14 20,13.5522847 20,13 L20,10 Z M20,8 L20,5 C20,4.44771525 19.5522847,4 19,4 L17,4 L17,5 C17,5.55228475 16.5522847,6 16,6 C15.4477153,6 15,5.55228475 15,5 L15,4 L9,4 L9,5 C9,5.55228475 8.55228475,6 8,6 C7.44771525,6 7,5.55228475 7,5 L7,4 L5,4 C4.44771525,4 4,4.44771525 4,5 L4,8 L20,8 Z" id="Icon" fill="#ADB5BD"></path>
    </g>
</svg>

<svg width="24" height="24">
    <title>
        Icons/24px/Calendar
    </title>
    <path d="M20 10H4v9a1 1 0 0 0 1 1h14a1 1 0 0 0 1-1v-2a1 1 0 0 1 2 0v2a3 3 0 0 1-3 3H5a3 3 0 0 1-3-3V5a3 3 0 0 1 3-3h2V1a1 1 0 1 1 2 0v1h6V1a1 1 0 0 1 2 0v1h2a3 3 0 0 1 3 3v8a1 1 0 0 1-2 0v-3zm0-2V5a1 1 0 0 0-1-1h-2v1a1 1 0 0 1-2 0V4H9v1a1 1 0 1 1-2 0V4H5a1 1 0 0 0-1 1v3h16z" fill="#ADB5BD" fill-rule="evenodd"/>
</svg>
